X:5304
T:Five Mile Chase
M:C
L:1/8
K:G Major
G2BG dGBG|FADA FADA|G2BG dGBd|egfa gedB|!
G2BG dGBG|FADA FADA|G2BG dGBd|egfa g3f|]!
gdBd edBd|gabg agef|gdBd edBd|egfa g3f|!
gabg efge|dedc BGBd|e3f edBd|egfa gedB|]!
